X:31
T:Sandy Boys
G:Key: A Mixolydian
M:C|
Z:abc-transcription Josh Larios <hades@elsewhere.org>, 2017.02.14
Z:abc-copyright This transcription is licensed under a Creative Commons Attribution-ShareAlike 4.0 International License.
K:A Mix
[P:A]y0|: eg | "A"a2 g2 e2 g2 | ed c2 A2 a2- | a2 g2 e2 g2 | "G"a3 b a2 eg |
| "A"a2 g2 e2 eg | ed c2 A2 AB | c3 c "E7"d2 c2 | "A"A3 B A2 :|
[P:B]y0|: cd | "A"e4 e3 e | d2 c2 A3 A | "A"[ce]2 [ce][ce] "D"[df]2 [df][df] |"A"[ce]2 [ce][ce] "D"[df]2 [df][df] |
| "A"e4 e3 c | d2 c2 A2 AB | c2 cc "E7"d2 c2 | "A"A3 B A2 :|

